X:118
T:Beaux of London City
Z:Jack Campin, http://www.campin.me.uk/
F:Jack Campin's Nine-Note Tunebook
% last edit 03-02-2013
B:Michael Raven, 1000 English Country Dance Tunes
M:9/8
L:1/8
Q:3/8=96
K:F % original key
C|F>FF A>GF A<cC|F2F A2G F2C|F>FF A>GF A<cC|F>CF A2G F2:|
z|c2B  AGF  Ac2 |G2F G2A B3 |c2B  AGF  A<cC|F>CF A2G F2:|
 
